svg/fluentui-system-icons/ic_fluent_cloud_archive_28_regular.svg

<svg width="28" height="28" viewBox="0 0 28 28" fill="none" xmlns="http://www.w3.org/2000/svg">
<path d="M7.51894 10C7.77426 6.64378 10.5784 4 14 4C17.4216 4 20.2257 6.64378 20.4811 10H20.75C23.1182 10 25.0815 11.733 25.4411 14H23.913C23.5745 12.5666 22.2868 11.5 20.75 11.5H19.75C19.3358 11.5 19 11.1642 19 10.75V10.5C19 7.73858 16.7614 5.5 14 5.5C11.2386 5.5 9 7.73858 9 10.5V10.75C9 11.1642 8.66421 11.5 8.25 11.5H7.25C5.45507 11.5 4 12.9551 4 14.75C4 16.5449 5.45507 18 7.25 18H13.2676C13.4432 18.3036 13.6964 18.5568 14 18.7324V19.5H7.25C4.62665 19.5 2.5 17.3734 2.5 14.75C2.5 12.1266 4.62665 10 7.25 10H7.51894ZM14 16C14 15.4477 14.4477 15 15 15H26C26.5523 15 27 15.4477 27 16V17C27 17.5523 26.5523 18 26 18H15C14.4477 18 14 17.5523 14 17V16ZM26 19H15V24C15 25.6569 16.3431 27 18 27H23C24.6569 27 26 25.6569 26 24V19ZM18.5 21H22.5C22.7761 21 23 21.2239 23 21.5C23 21.7761 22.7761 22 22.5 22H18.5C18.2239 22 18 21.7761 18 21.5C18 21.2239 18.2239 21 18.5 21Z" fill="#212121"/>
</svg>

<svg xmlns="http://www.w3.org/2000/svg" width="28" height="28"><path d="M7.519 10a6.5 6.5 0 0 1 12.962 0h.269a4.751 4.751 0 0 1 4.691 4h-1.528a3.251 3.251 0 0 0-3.163-2.5h-1a.75.75 0 0 1-.75-.75v-.25a5 5 0 0 0-10 0v.25a.75.75 0 0 1-.75.75h-1a3.25 3.25 0 0 0 0 6.5h6.018c.175.304.428.557.732.732v.768H7.25a4.75 4.75 0 1 1 0-9.5h.269ZM14 16a1 1 0 0 1 1-1h11a1 1 0 0 1 1 1v1a1 1 0 0 1-1 1H15a1 1 0 0 1-1-1v-1Zm12 3H15v5a3 3 0 0 0 3 3h5a3 3 0 0 0 3-3v-5Zm-7.5 2h4a.5.5 0 0 1 0 1h-4a.5.5 0 0 1 0-1Z"/></svg>
